X: 28469
T: Muñeira D'Antón
R: jig
M: 6/8
K: Dmixolydian
FG|:A2 F GFG|A2 F GFD|CEG ABc|B2 A2 FG|
A2 F GFG|A2 F GFD|CEG cBA||1 D4 FG:|2 D5 d||
|:cAc BGB|A2F AFD|CEG ABc|B2 A3 d|
cAc BGB|A2F AFD|CEG cBA|1 D5 d:|2 D2 A ABA||
|:F2 D DEF|G2 B BcB|BcB AGF|A2 F ABA|
F2 D DCD|G3 cBA|BAG AFE|1 D2 F ABA:|2 D4 FG||

